packages/foundations/assets/icons/functional/images/notification/question_mark_circle_20.svg

<svg width="20" height="20" viewBox="0 0 20 20" fill="none" xmlns="http://www.w3.org/2000/svg">
<g clip-path="url(#clip0_187_204)">
<path fill-rule="evenodd" clip-rule="evenodd" d="M10.0004 2C14.3986 2 18 5.5813 18 9.9948C18 14.3931 14.4194 18 10 18C5.5791 18 2 14.3915 2 9.9953C2 5.5916 5.5902 2 10.0004 2ZM9.9996 4C6.6941 4 4.0098 6.6792 4.0098 9.9948C4.0098 13.295 6.6732 16 10 16C13.3283 16 15.9902 13.2933 15.9902 9.9953C15.9902 6.6897 13.3171 4 9.9996 4ZM9.6293 14.4976C10.1951 14.4976 10.6244 14.0488 10.6244 13.5024C10.6244 12.9561 10.1951 12.5268 9.6293 12.5268C9.0634 12.5268 8.6341 12.9561 8.6341 13.5024C8.6341 14.0488 9.0634 14.4976 9.6293 14.4976ZM8.6341 11.6293H10.6244V10.6146C10.6244 9.9342 12.3852 9.5899 12.3852 7.649C12.3852 6.2632 11.2878 5.5024 9.8718 5.5024C8.9743 5.5024 7.9895 5.8091 7.5648 6.1525L8.2448 7.9174C8.6743 7.6794 9.2279 7.4927 9.7064 7.4927C10.2641 7.4927 10.4098 7.7463 10.4098 8.028C10.4098 9.0112 8.6341 8.9213 8.6341 10.6146V11.6293Z" fill="#1A1C1F"/>
</g>
<defs>
<clipPath id="clip0_187_204">
<rect width="20" height="20" fill="white"/>
</clipPath>
</defs>
</svg>

<svg xmlns="http://www.w3.org/2000/svg" width="20" height="20" fill="none"><g clip-path="url(#a)"><path fill="#1A1C1F" fill-rule="evenodd" d="M10 2c4.399 0 8 3.581 8 7.995C18 14.393 14.42 18 10 18s-8-3.608-8-8.005C2 5.592 5.59 2 10 2m0 2a5.99 5.99 0 0 0-5.99 5.995C4.01 13.295 6.673 16 10 16s5.99-2.707 5.99-6.005A5.99 5.99 0 0 0 10 4m-.37 10.498a.987.987 0 0 0 .994-.996c0-.546-.429-.975-.995-.975s-.995.43-.995.975c0 .547.43.996.995.996m-.996-2.869h1.99v-1.014c0-.68 1.761-1.025 1.761-2.966 0-1.386-1.097-2.147-2.513-2.147-.898 0-1.883.307-2.307.65l.68 1.765c.43-.238.983-.424 1.461-.424.558 0 .704.253.704.535 0 .983-1.776.893-1.776 2.587z" clip-rule="evenodd"/></g><defs><clipPath id="a"><path fill="#fff" d="M0 0h20v20H0z"/></clipPath></defs></svg>
